X: 116
T: Csernátoni csendes patak
M:4/8
L:1/4
K:C
G<F E<G | G>E F<E | 
G>F E<G | G>F F<E |
E>E D<D | C>C D<D |
E>E D<D | C>C C<C |
